src/assets/icons/bcy.svg

<?xml version="1.0" encoding="UTF-8"?><!DOCTYPE svg><svg width="712pt" height="711pt" version="1.1" viewBox="0 0 712 711" xmlns="http://www.w3.org/2000/svg"><g fill="#fa4c8b"><path d="m152.62 0h405.87c34.05 0.75 67.8 12.72 94.33 34.15 26.49 21.14 45.83 51.13 53.86 84.08 3.42 13.64 4.79 27.74 4.57 41.78v397c-0.03 2.05-0.31 4.08-0.49 6.13-1.32-2.87-1.91-5.98-2.52-9.05-9.96-44.25-24.81-87.29-42.67-128.95-21.37-49.47-46.81-97.24-76.75-142.07-11.13-16.21-22.51-32.43-36.25-46.56-3.39-3.03-6.81-7.04-11.51-7.67-9.46 1.5-16.24 9.18-21.85 16.33-11.73 15.67-19.86 33.64-27.57 51.53-1.12 2.69-3.86 4.6-6.78 4.61-61.85-7.91-126.13 2.45-181.94 30.44-2.78 1.34-5.53 3.46-8.8 2.92-2.48-0.27-4.13-2.38-5.89-3.91-14.97-14.45-29.86-29.3-47.43-40.62-5.44-3.14-11.6-7.09-18.15-5.39-4.72 2.66-6.91 8.02-9.28 12.63-7.82 17.39-12.51 35.99-16.88 54.49-10.75 48-16.47 97.02-19.4 146.08-2.16 34.33-1.91 68.75-1.4 103.13 1 32.04 3.67 63.98 6.26 95.93 0.53 4.66 0.55 9.39 1.6 13.99h-33.21c-21.13-0.94-42.11-5.86-61.21-14.99-12.14-5.57-23.05-13.34-33.71-21.27-4.67-3.77-8.2-8.81-13.09-12.34-7.53-8.85-14.72-18.06-20.58-28.12-11.94-20.15-19.1-43.06-20.94-66.39-0.21-2.99-0.25-6-0.81-8.95v-406.56c0.66-3.77 0.61-7.61 0.98-11.41 1.48-15.6 5.29-30.99 11.38-45.44 12.78-30.65 35.72-56.91 64.31-73.79 22.87-13.71 49.35-20.95 75.95-21.74m5.8 79.7c-3.75 1.9-6.37 6.02-6.18 10.26 0.14 7.03 1.24 13.99 1.65 21.01 0.15 3.65 1.55 7.77-0.71 11.05-1.17 1.97-3.35 2.97-5.53 3.37-10.18 1.93-20.38 3.75-30.55 5.73-3.99 0.96-8.14-2.11-8.96-6.02-2.2-8.16-4.4-16.31-6.54-24.49-0.66-2.69-2.11-5.19-4.32-6.89-4.15-3.44-10.9-2.89-14.5 1.1-3.08 2.81-3.7 7.44-2.57 11.3 8.67 32.32 17.32 64.65 25.99 96.97 1.27 5.14 6.47 9.16 11.83 8.43 6.5-0.41 11.37-7.4 9.57-13.65-3.12-11.97-6.4-23.89-9.57-35.84-1.48-4.18 1.52-9.03 5.82-9.76 8.42-1.56 16.81-3.26 25.25-4.67 4.11-0.8 8.16 2.57 8.56 6.63 1.21 12.6 2.15 25.24 3.38 37.84 0.55 5.34 5.43 10.15 10.97 9.7 6.16 0.36 11.64-5.65 10.83-11.76-2.76-33.68-5.85-67.34-8.76-101.01-0.11-7.52-9.01-12.73-15.66-9.3m50.77 6.54c-4.33 1.65-7.2 6.27-6.93 10.87 0.17 5.92 5.78 10.94 11.7 10.42 6.58-0.24 11.8-7.18 10.04-13.57-1.28-6.37-8.85-10.31-14.81-7.72m3.08 36.15c-3.56 1.43-6.36 4.82-6.71 8.69-0.19 2.28 0.04 4.56 0.25 6.83 1.49 15.71 2.68 31.44 4.21 47.14 0.9 7.74 11.06 12 17.2 7.16 4.45-2.85 5.1-8.5 4.34-13.29-1.49-16.02-2.77-32.06-4.26-48.08-0.86-6.79-8.78-11.16-15.03-8.45m55.09 45.09c-5.73 2.72-7.47 10.88-3.71 15.87 1.82 2.77 5.07 4.14 8.27 4.49 22.06 2.9 42.32 16.71 53.18 36.12 1.38 2.5 2.7 5.26 5.26 6.77 4.16 2.96 10.42 2.16 13.75-1.71 2.93-3.15 3.39-8.12 1.65-11.96-13.97-27.83-42.63-47.84-73.7-50.74-1.63 0-3.26 0.4-4.7 1.16z"/><path d="m501.41 391.56c6.93-1.59 14.02 1.35 19.09 6.03 8.63 7.87 13.46 19.14 15.55 30.45 2.03 12.25 1.26 25.68-5.53 36.41-3.72 5.92-10.34 10.47-17.54 10.03-8.45-0.74-15.34-6.73-20.06-13.39-7.81-11.36-11.24-25.5-10.45-39.19 0.75-7.99 2.84-16.16 7.77-22.64 2.79-3.65 6.66-6.6 11.17-7.7z"/><path d="m312.56 424.78c6.48-1.53 13.12 1.47 17.98 5.63 9.7 8.41 14.73 21 16.64 33.44 1.51 11.37 0.41 23.59-5.69 33.54-3.44 5.7-9.52 10.49-16.43 10.38-7.26 0.24-13.72-4.28-18.39-9.45-11.46-13.41-15.46-32.22-12.59-49.4 1.93-10.19 7.59-21.44 18.48-24.14z"/><path d="m495.78 524.75c3.19-2.87 7.83-3.33 11.83-2.14 3.96 1.59 7.03 5.23 7.87 9.44 1.75 11.04-0.27 22.72-6.03 32.34-7.39 12.7-20.86 21.66-35.45 23.45-12.66 2.02-25.84-2.01-35.89-9.81-8.44 13.66-23.99 22.48-40.04 22.69-19.21 0.63-38.22-11.49-45.37-29.4-2.19-5.67-5.34-12.61-1.58-18.31 3.47-6.32 12.79-8.17 18.23-3.31 5.43 4.57 4.3 12.79 9.15 17.78 6.73 8.74 19.5 11.19 29.29 6.44 7.93-3.66 12.95-12.33 12.78-20.98 0.13-3.61-0.91-7.44 0.66-10.85 2.13-5.23 8.12-8.76 13.73-7.51 3.65 0.85 7 3.31 8.62 6.73 1.11 2.73 1.48 5.71 2.63 8.44 3.26 7.9 11.3 13.5 19.84 13.84 7.78 0.59 15.8-2.74 20.55-8.99 3.99-4.9 5.73-11.37 4.87-17.61-0.67-4.48 0.49-9.47 4.31-12.24z"/><path d="m52.19 674.21c0.6 0.56 0.6 0.56 0 0z"/></g><g fill="#fff"><path d="m158.42 79.7c6.65-3.43 15.55 1.78 15.66 9.3 2.91 33.67 6 67.33 8.76 101.01 0.81 6.11-4.67 12.12-10.83 11.76-5.54 0.45-10.42-4.36-10.97-9.7-1.23-12.6-2.17-25.24-3.38-37.84-0.4-4.06-4.45-7.43-8.56-6.63-8.44 1.41-16.83 3.11-25.25 4.67-4.3 0.73-7.3 5.58-5.82 9.76 3.17 11.95 6.45 23.87 9.57 35.84 1.8 6.25-3.07 13.24-9.57 13.65-5.36 0.73-10.56-3.29-11.83-8.43-8.67-32.32-17.32-64.65-25.99-96.97-1.13-3.86-0.51-8.49 2.57-11.3 3.6-3.99 10.35-4.54 14.5-1.1 2.21 1.7 3.66 4.2 4.32 6.89 2.14 8.18 4.34 16.33 6.54 24.49 0.82 3.91 4.97 6.98 8.96 6.02 10.17-1.98 20.37-3.8 30.55-5.73 2.18-0.4 4.36-1.4 5.53-3.37 2.26-3.28 0.86-7.4 0.71-11.05-0.41-7.02-1.51-13.98-1.65-21.01-0.19-4.24 2.43-8.36 6.18-10.26z"/><path d="m209.19 86.24c5.96-2.59 13.53 1.35 14.81 7.72 1.76 6.39-3.46 13.33-10.04 13.57-5.92 0.52-11.53-4.5-11.7-10.42-0.27-4.6 2.6-9.22 6.93-10.87z"/><path d="m212.27 122.39c6.25-2.71 14.17 1.66 15.03 8.45 1.49 16.02 2.77 32.06 4.26 48.08 0.76 4.79 0.11 10.44-4.34 13.29-6.14 4.84-16.3 0.58-17.2-7.16-1.53-15.7-2.72-31.43-4.21-47.14-0.21-2.27-0.44-4.55-0.25-6.83 0.35-3.87 3.15-7.26 6.71-8.69z"/><path d="m267.36 167.48c1.44-0.76 3.07-1.16 4.7-1.16 31.07 2.9 59.73 22.91 73.7 50.74 1.74 3.84 1.28 8.81-1.65 11.96-3.33 3.87-9.59 4.67-13.75 1.71-2.56-1.51-3.88-4.27-5.26-6.77-10.86-19.41-31.12-33.22-53.18-36.12-3.2-0.35-6.45-1.72-8.27-4.49-3.76-4.99-2.02-13.15 3.71-15.87z"/><path d="m519.21 245.17c5.61-7.15 12.39-14.83 21.85-16.33 4.7 0.63 8.12 4.64 11.51 7.67 13.74 14.13 25.12 30.35 36.25 46.56 29.94 44.83 55.38 92.6 76.75 142.07 17.86 41.66 32.71 84.7 42.67 128.95 0.61 3.07 1.2 6.18 2.52 9.05 0.14 5.97-0.75 11.91-1.66 17.8-5.71 35.3-24.22 68.34-51.23 91.76-26.5 23.35-61.15 36.93-96.41 38.3h-377.91c-1.05-4.6-1.07-9.33-1.6-13.99-2.59-31.95-5.26-63.89-6.26-95.93-0.51-34.38-0.76-68.8 1.4-103.13 2.93-49.06 8.65-98.08 19.4-146.08 4.37-18.5 9.06-37.1 16.88-54.49 2.37-4.61 4.56-9.97 9.28-12.63 6.55-1.7 12.71 2.25 18.15 5.39 17.57 11.32 32.46 26.17 47.43 40.62 1.76 1.53 3.41 3.64 5.89 3.91 3.27 0.54 6.02-1.58 8.8-2.92 55.81-27.99 120.09-38.35 181.94-30.44 2.92-0.01 5.66-1.92 6.78-4.61 7.71-17.89 15.84-35.86 27.57-51.53m-17.8 146.39c-4.51 1.1-8.38 4.05-11.17 7.7-4.93 6.48-7.02 14.65-7.77 22.64-0.79 13.69 2.64 27.83 10.45 39.19 4.72 6.66 11.61 12.65 20.06 13.39 7.2 0.44 13.82-4.11 17.54-10.03 6.79-10.73 7.56-24.16 5.53-36.41-2.09-11.31-6.92-22.58-15.55-30.45-5.07-4.68-12.16-7.62-19.09-6.03m-188.85 33.22c-10.89 2.7-16.55 13.95-18.48 24.14-2.87 17.18 1.13 35.99 12.59 49.4 4.67 5.17 11.13 9.69 18.39 9.45 6.91 0.11 12.99-4.68 16.43-10.38 6.1-9.95 7.2-22.17 5.69-33.54-1.91-12.44-6.94-25.03-16.64-33.44-4.86-4.16-11.5-7.16-17.98-5.63m183.22 99.97c-3.82 2.77-4.98 7.76-4.31 12.24 0.86 6.24-0.88 12.71-4.87 17.61-4.75 6.25-12.77 9.58-20.55 8.99-8.54-0.34-16.58-5.94-19.84-13.84-1.15-2.73-1.52-5.71-2.63-8.44-1.62-3.42-4.97-5.88-8.62-6.73-5.61-1.25-11.6 2.28-13.73 7.51-1.57 3.41-0.53 7.24-0.66 10.85 0.17 8.65-4.85 17.32-12.78 20.98-9.79 4.75-22.56 2.3-29.29-6.44-4.85-4.99-3.72-13.21-9.15-17.78-5.44-4.86-14.76-3.01-18.23 3.31-3.76 5.7-0.61 12.64 1.58 18.31 7.15 17.91 26.16 30.03 45.37 29.4 16.05-0.21 31.6-9.03 40.04-22.69 10.05 7.8 23.23 11.83 35.89 9.81 14.59-1.79 28.06-10.75 35.45-23.45 5.76-9.62 7.78-21.3 6.03-32.34-0.84-4.21-3.91-7.85-7.87-9.44-4-1.19-8.64-0.73-11.83 2.14z"/></g></svg>

<?xml version="1.0" encoding="UTF-8" ?>
<!DOCTYPE svg PUBLIC "-//W3C//DTD SVG 1.1//EN" "http://www.w3.org/Graphics/SVG/1.1/DTD/svg11.dtd">
<svg width="712pt" height="711pt" viewBox="0 0 712 711" version="1.1" xmlns="http://www.w3.org/2000/svg">
<g id="#fa4c8bff">
<path fill="#fa4c8b" opacity="1.00" d=" M 152.62 0.00 L 558.49 0.00 C 592.54 0.75 626.29 12.72 652.82 34.15 C 679.31 55.29 698.65 85.28 706.68 118.23 C 710.10 131.87 711.47 145.97 711.25 160.01 C 711.25 292.34 711.25 424.68 711.25 557.01 C 711.22 559.06 710.94 561.09 710.76 563.14 C 709.44 560.27 708.85 557.16 708.24 554.09 C 698.28 509.84 683.43 466.80 665.57 425.14 C 644.20 375.67 618.76 327.90 588.82 283.07 C 577.69 266.86 566.31 250.64 552.57 236.51 C 549.18 233.48 545.76 229.47 541.06 228.84 C 531.60 230.34 524.82 238.02 519.21 245.17 C 507.48 260.84 499.35 278.81 491.64 296.70 C 490.52 299.39 487.78 301.30 484.86 301.31 C 423.01 293.40 358.73 303.76 302.92 331.75 C 300.14 333.09 297.39 335.21 294.12 334.67 C 291.64 334.40 289.99 332.29 288.23 330.76 C 273.26 316.31 258.37 301.46 240.80 290.14 C 235.36 287.00 229.20 283.05 222.65 284.75 C 217.93 287.41 215.74 292.77 213.37 297.38 C 205.55 314.77 200.86 333.37 196.49 351.87 C 185.74 399.87 180.02 448.89 177.09 497.95 C 174.93 532.28 175.18 566.70 175.69 601.08 C 176.69 633.12 179.36 665.06 181.95 697.01 C 182.48 701.67 182.50 706.40 183.55 711.00 L 150.34 711.00 C 129.21 710.06 108.23 705.14 89.13 696.01 C 76.99 690.44 66.08 682.67 55.42 674.74 C 50.75 670.97 47.22 665.93 42.33 662.40 C 34.80 653.55 27.61 644.34 21.75 634.28 C 9.81 614.13 2.65 591.22 0.81 567.89 C 0.60 564.90 0.56 561.89 0.00 558.94 L 0.00 152.38 C 0.66 148.61 0.61 144.77 0.98 140.97 C 2.46 125.37 6.27 109.98 12.36 95.53 C 25.14 64.88 48.08 38.62 76.67 21.74 C 99.54 8.03 126.02 0.79 152.62 0.00 M 158.42 79.70 C 154.67 81.60 152.05 85.72 152.24 89.96 C 152.38 96.99 153.48 103.95 153.89 110.97 C 154.04 114.62 155.44 118.74 153.18 122.02 C 152.01 123.99 149.83 124.99 147.65 125.39 C 137.47 127.32 127.27 129.14 117.10 131.12 C 113.11 132.08 108.96 129.01 108.14 125.10 C 105.94 116.94 103.74 108.79 101.60 100.61 C 100.94 97.92 99.49 95.42 97.28 93.72 C 93.13 90.28 86.38 90.83 82.78 94.82 C 79.70 97.63 79.08 102.26 80.21 106.12 C 88.88 138.44 97.53 170.77 106.20 203.09 C 107.47 208.23 112.67 212.25 118.03 211.52 C 124.53 211.11 129.40 204.12 127.60 197.87 C 124.48 185.90 121.20 173.98 118.03 162.03 C 116.55 157.85 119.55 153.00 123.85 152.27 C 132.27 150.71 140.66 149.01 149.10 147.60 C 153.21 146.80 157.26 150.17 157.66 154.23 C 158.87 166.83 159.81 179.47 161.04 192.07 C 161.59 197.41 166.47 202.22 172.01 201.77 C 178.17 202.13 183.65 196.12 182.84 190.01 C 180.08 156.33 176.99 122.67 174.08 89.00 C 173.97 81.48 165.07 76.27 158.42 79.70 M 209.19 86.24 C 204.86 87.89 201.99 92.51 202.26 97.11 C 202.43 103.03 208.04 108.05 213.96 107.53 C 220.54 107.29 225.76 100.35 224.00 93.96 C 222.72 87.59 215.15 83.65 209.19 86.24 M 212.27 122.39 C 208.71 123.82 205.91 127.21 205.56 131.08 C 205.37 133.36 205.60 135.64 205.81 137.91 C 207.30 153.62 208.49 169.35 210.02 185.05 C 210.92 192.79 221.08 197.05 227.22 192.21 C 231.67 189.36 232.32 183.71 231.56 178.92 C 230.07 162.90 228.79 146.86 227.30 130.84 C 226.44 124.05 218.52 119.68 212.27 122.39 M 267.36 167.48 C 261.63 170.20 259.89 178.36 263.65 183.35 C 265.47 186.12 268.72 187.49 271.92 187.84 C 293.98 190.74 314.24 204.55 325.10 223.96 C 326.48 226.46 327.80 229.22 330.36 230.73 C 334.52 233.69 340.78 232.89 344.11 229.02 C 347.04 225.87 347.50 220.90 345.76 217.06 C 331.79 189.23 303.13 169.22 272.06 166.32 C 270.43 166.32 268.80 166.72 267.36 167.48 Z" />
<path fill="#fa4c8b" opacity="1.00" d=" M 501.41 391.56 C 508.34 389.97 515.43 392.91 520.50 397.59 C 529.13 405.46 533.96 416.73 536.05 428.04 C 538.08 440.29 537.31 453.72 530.52 464.45 C 526.80 470.37 520.18 474.92 512.98 474.48 C 504.53 473.74 497.64 467.75 492.92 461.09 C 485.11 449.73 481.68 435.59 482.47 421.90 C 483.22 413.91 485.31 405.74 490.24 399.26 C 493.03 395.61 496.90 392.66 501.41 391.56 Z" />
<path fill="#fa4c8b" opacity="1.00" d=" M 312.56 424.78 C 319.04 423.25 325.68 426.25 330.54 430.41 C 340.24 438.82 345.27 451.41 347.18 463.85 C 348.69 475.22 347.59 487.44 341.49 497.39 C 338.05 503.09 331.97 507.88 325.06 507.77 C 317.80 508.01 311.34 503.49 306.67 498.32 C 295.21 484.91 291.21 466.10 294.08 448.92 C 296.01 438.73 301.67 427.48 312.56 424.78 Z" />
<path fill="#fa4c8b" opacity="1.00" d=" M 495.78 524.75 C 498.97 521.88 503.61 521.42 507.61 522.61 C 511.57 524.20 514.64 527.84 515.48 532.05 C 517.23 543.09 515.21 554.77 509.45 564.39 C 502.06 577.09 488.59 586.05 474.00 587.84 C 461.34 589.86 448.16 585.83 438.11 578.03 C 429.67 591.69 414.12 600.51 398.07 600.72 C 378.86 601.35 359.85 589.23 352.70 571.32 C 350.51 565.65 347.36 558.71 351.12 553.01 C 354.59 546.69 363.91 544.84 369.35 549.70 C 374.78 554.27 373.65 562.49 378.50 567.48 C 385.23 576.22 398.00 578.67 407.79 573.92 C 415.72 570.26 420.74 561.59 420.57 552.94 C 420.70 549.33 419.66 545.50 421.23 542.09 C 423.36 536.86 429.35 533.33 434.96 534.58 C 438.61 535.43 441.96 537.89 443.58 541.31 C 444.69 544.04 445.06 547.02 446.21 549.75 C 449.47 557.65 457.51 563.25 466.05 563.59 C 473.83 564.18 481.85 560.85 486.60 554.60 C 490.59 549.70 492.33 543.23 491.47 536.99 C 490.80 532.51 491.96 527.52 495.78 524.75 Z" />
<path fill="#fa4c8b" opacity="1.00" d=" M 52.19 674.21 C 52.79 674.77 52.79 674.77 52.19 674.21 Z" />
</g>
<g id="#ffffffff">
<path fill="#ffffff" opacity="1.00" d=" M 158.42 79.70 C 165.07 76.27 173.97 81.48 174.08 89.00 C 176.99 122.67 180.08 156.33 182.84 190.01 C 183.65 196.12 178.17 202.13 172.01 201.77 C 166.47 202.22 161.59 197.41 161.04 192.07 C 159.81 179.47 158.87 166.83 157.66 154.23 C 157.26 150.17 153.21 146.80 149.10 147.60 C 140.66 149.01 132.27 150.71 123.85 152.27 C 119.55 153.00 116.55 157.85 118.03 162.03 C 121.20 173.98 124.48 185.90 127.60 197.87 C 129.40 204.12 124.53 211.11 118.03 211.52 C 112.67 212.25 107.47 208.23 106.20 203.09 C 97.53 170.77 88.88 138.44 80.21 106.12 C 79.08 102.26 79.70 97.63 82.78 94.82 C 86.38 90.83 93.13 90.28 97.28 93.72 C 99.49 95.42 100.94 97.92 101.60 100.61 C 103.74 108.79 105.94 116.94 108.14 125.10 C 108.96 129.01 113.11 132.08 117.10 131.12 C 127.27 129.14 137.47 127.32 147.65 125.39 C 149.83 124.99 152.01 123.99 153.18 122.02 C 155.44 118.74 154.04 114.62 153.89 110.97 C 153.48 103.95 152.38 96.99 152.24 89.96 C 152.05 85.72 154.67 81.60 158.42 79.70 Z" />
<path fill="#ffffff" opacity="1.00" d=" M 209.19 86.24 C 215.15 83.65 222.72 87.59 224.00 93.96 C 225.76 100.35 220.54 107.29 213.96 107.53 C 208.04 108.05 202.43 103.03 202.26 97.11 C 201.99 92.51 204.86 87.89 209.19 86.24 Z" />
<path fill="#ffffff" opacity="1.00" d=" M 212.27 122.39 C 218.52 119.68 226.44 124.05 227.30 130.84 C 228.79 146.86 230.07 162.90 231.56 178.92 C 232.32 183.71 231.67 189.36 227.22 192.21 C 221.08 197.05 210.92 192.79 210.02 185.05 C 208.49 169.35 207.30 153.62 205.81 137.91 C 205.60 135.64 205.37 133.36 205.56 131.08 C 205.91 127.21 208.71 123.82 212.27 122.39 Z" />
<path fill="#ffffff" opacity="1.00" d=" M 267.36 167.48 C 268.80 166.72 270.43 166.32 272.06 166.32 C 303.13 169.22 331.79 189.23 345.76 217.06 C 347.50 220.90 347.04 225.87 344.11 229.02 C 340.78 232.89 334.52 233.69 330.36 230.73 C 327.80 229.22 326.48 226.46 325.10 223.96 C 314.24 204.55 293.98 190.74 271.92 187.84 C 268.72 187.49 265.47 186.12 263.65 183.35 C 259.89 178.36 261.63 170.20 267.36 167.48 Z" />
<path fill="#ffffff" opacity="1.00" d=" M 519.21 245.17 C 524.82 238.02 531.60 230.34 541.06 228.84 C 545.76 229.47 549.18 233.48 552.57 236.51 C 566.31 250.64 577.69 266.86 588.82 283.07 C 618.76 327.90 644.20 375.67 665.57 425.14 C 683.43 466.80 698.28 509.84 708.24 554.09 C 708.85 557.16 709.44 560.27 710.76 563.14 C 710.90 569.11 710.01 575.05 709.10 580.94 C 703.39 616.24 684.88 649.28 657.87 672.70 C 631.37 696.05 596.72 709.63 561.46 711.00 L 183.55 711.00 C 182.50 706.40 182.48 701.67 181.95 697.01 C 179.36 665.06 176.69 633.12 175.69 601.08 C 175.18 566.70 174.93 532.28 177.09 497.95 C 180.02 448.89 185.74 399.87 196.49 351.87 C 200.86 333.37 205.55 314.77 213.37 297.38 C 215.74 292.77 217.93 287.41 222.65 284.75 C 229.20 283.05 235.36 287.00 240.80 290.14 C 258.37 301.46 273.26 316.31 288.23 330.76 C 289.99 332.29 291.64 334.40 294.12 334.67 C 297.39 335.21 300.14 333.09 302.92 331.75 C 358.73 303.76 423.01 293.40 484.86 301.31 C 487.78 301.30 490.52 299.39 491.64 296.70 C 499.35 278.81 507.48 260.84 519.21 245.17 M 501.41 391.56 C 496.90 392.66 493.03 395.61 490.24 399.26 C 485.31 405.74 483.22 413.91 482.47 421.90 C 481.68 435.59 485.11 449.73 492.92 461.09 C 497.64 467.75 504.53 473.74 512.98 474.48 C 520.18 474.92 526.80 470.37 530.52 464.45 C 537.31 453.72 538.08 440.29 536.05 428.04 C 533.96 416.73 529.13 405.46 520.50 397.59 C 515.43 392.91 508.34 389.97 501.41 391.56 M 312.56 424.78 C 301.67 427.48 296.01 438.73 294.08 448.92 C 291.21 466.10 295.21 484.91 306.67 498.32 C 311.34 503.49 317.80 508.01 325.06 507.77 C 331.97 507.88 338.05 503.09 341.49 497.39 C 347.59 487.44 348.69 475.22 347.18 463.85 C 345.27 451.41 340.24 438.82 330.54 430.41 C 325.68 426.25 319.04 423.25 312.56 424.78 M 495.78 524.75 C 491.96 527.52 490.80 532.51 491.47 536.99 C 492.33 543.23 490.59 549.70 486.60 554.60 C 481.85 560.85 473.83 564.18 466.05 563.59 C 457.51 563.25 449.47 557.65 446.21 549.75 C 445.06 547.02 444.69 544.04 443.58 541.31 C 441.96 537.89 438.61 535.43 434.96 534.58 C 429.35 533.33 423.36 536.86 421.23 542.09 C 419.66 545.50 420.70 549.33 420.57 552.94 C 420.74 561.59 415.72 570.26 407.79 573.92 C 398.00 578.67 385.23 576.22 378.50 567.48 C 373.65 562.49 374.78 554.27 369.35 549.70 C 363.91 544.84 354.59 546.69 351.12 553.01 C 347.36 558.71 350.51 565.65 352.70 571.32 C 359.85 589.23 378.86 601.35 398.07 600.72 C 414.12 600.51 429.67 591.69 438.11 578.03 C 448.16 585.83 461.34 589.86 474.00 587.84 C 488.59 586.05 502.06 577.09 509.45 564.39 C 515.21 554.77 517.23 543.09 515.48 532.05 C 514.64 527.84 511.57 524.20 507.61 522.61 C 503.61 521.42 498.97 521.88 495.78 524.75 Z" />
</g>
</svg>
